T: Donegal Tinker, The
M: 4/4
L: 1/8
K: Dmix
d3d cAGc|AddB cAGc|Addc AdcA|GEED CDEG|Ad (3ddd fd (3ddd|adfd cAGc|Addc AdcA|GEED CDEG||AD (3DDD A,D (3DDD|ADAd cAGc|ADFA ~E3G|AdcA G2cG|AD (3DDD A,D (3DDD|ADAd cAGc|ADFA EDEG|AdcA GcAG||Ad (3ddd c2Bc|dA (3AAA afgf|Ad~d2 ~c3A|(3Bcd ef g2fe|d3 d c2Ac|dA (3AAA afgf|Ad (3ddd ~c3A|(3Bcd ef g2fg||ad (3ddd adbd|ad (3ddd adgd|ad (3ddd ^cdef|g2fg ad 3ddd|bd (3ddd adfg|a2 fg abaf|gfed ^cdef g2fe||
